!!!COM: Bach, Johann Sebastian
!!!CDT: 1685/3//-1750/7/28/
!!!OTL@@DE: Liebster Jesu, wir sind hier
!!!AGN: 4-Part Chorale
!!!SCT: Erk 328
!!!SCT: BWV 373
!!!YEC: Copyright 1994, David Huron
!!!YEC: Changes/Additions 2001 by Craig Stuart Sapp
!!!YEN: United States of America
!!!SMA: 371 Bach Chorales, edited by Ludwig Erk, C.F. Peters
!!!PDT: 1850, 1865
!!!ONB: Harmony and Root analysis done manually
**kern	**kern	**kern	**kern	**root	**harm	**kern
!bass	!tenor	!alto	!soprno	!	!	!
*Iorgan	*Iorgan	*Iorgan	*Iorgan	*Iorgan	*	*Iorgan
*M4/4	*M4/4	*M4/4	*M4/4	*M4/4	*M4/4	*M4/4
*met(C)	*met(C)	*met(C)	*met(C)	*met(C)	*met(C)	*met(C)
*MM60	*MM60	*MM60	*MM60	*MM60	*MM60	*MM60
*k[f#]	*k[f#]	*k[f#]	*k[f#]	*k[f#]	*k[f#]	*k[f#]
*G:	*G:	*G:	*G:	*G:	*G:	*G:
*>[A,A,B]	*>[A,A,B]	*>[A,A,B]	*>[A,A,B]	*>[A,A,B]	*>[A,A,B]	*>[A,A,B]
*>A	*>A	*>A	*>A	*>A	*>A	*>A
=1-	=1-	=1-	=1-	=1-	=1-	=1-
4GG	8G	4d	4b	4GG	I	4G 4b 4dd
.	8A	.	.	.	.	.
[4G	4B	4d	8a	4GG	I	4G 4b 4dd
.	.	.	8g	.	.	.
8G]	4A	4d	4a	4DD	Vb	4d 4F# 4a
8F#	.	.	.	.	.	.
8E	4A	4f#	4dd	4DD	V	4D 4f# 4a
8D	.	.	.	.	.	.
=2	=2	=2	=2	=2	=2	=2
8G	8B	4d	4b	4GG	I	4G 4b 4dd
8A	8c	.	.	.	.	.
8B	4d	8d	4g	4GG	Ib	4g 4B 4dd
8G	.	8e	.	.	.	.
2D;	2d;	2f#;	2a;	2DD;	V;	2D; 2f#; 2a;
=3	=3	=3	=3	=3	=3	=3
8EE	4B	4e	4g	4EE	vi	4E 4g 4b
4E	.	.	.	.	.	.
.	4B	4fn	4g	4GG	V7c/IV	4g 4b 4D 4f
8D	.	.	.	.	.	.
8CC	4c	4e	4g	4CC	IV	4C 4e 4g
4C	.	.	.	.	.	.
.	4G	4d	4g	4GG	Ib	4g 4B 4dd
8BB	.	.	.	.	.	.
=4	=4	=4	=4	=4	=4	=4
4AA	4c	8e	4a	4AA	ii	4A 4cc 4ee
.	.	8f#y	.	.	.	.
8GG	4d	4g	4b	4GG	I	4G 4b 4dd
8BB	.	.	.	.	.	.
8C	8e	4g	2a	4AA	ii7b	4a 4C 4ee 4gg
8AA	8c	.	.	.	.	.
4D	8A	4f#	.	4DD	V	4D 4f# 4a
.	16d	.	.	.	.	.
.	16c	.	.	.	.	.
=5	=5	=5	=5	=5	=5	=5
1GG;	1B;	1d;	1g;	1GG;	I;	1G; 1b; 1dd;
*>B	*>B	*>B	*>B	*>B	*>B	*>B
=6:|!	=6:|!	=6:|!	=6:|!	=6:|!	=6:|!	=6:|!
8GG	4G	4B	4d	4GG	I	4G 4b 4dd
4G	.	.	.	.	.	.
.	4A	4A	4d	4DD	Vb	4d 4F# 4a
8F#	.	.	.	.	.	.
4E	4G	8B	4e	4CC#	viiob/V	4c# 4E 4g
.	.	8c#	.	.	.	.
[4D	4A	4d	4f#	4DD	V	4D 4f# 4a
=7	=7	=7	=7	=7	=7	=7
4D]	4B	4e	4g	4EE	vi7d	4e 4g 4b 4D
4C#	4A	4e	8a	4AA	Vb/V	4a 4C# 4ee
.	.	.	8g	.	.	.
4D	8A	4d	8f#	4DD	V	4D 4f# 4a
.	8G	.	8e	.	.	.
4D;	4F#;	4A;	4d;	4DD;	V;	4D; 4f#; 4a;
=8	=8	=8	=8	=8	=8	=8
8BB	4.G	8d	4g	4GG	Ib	4g 4B 4dd
8GG	.	8B	.	.	.	.
8AA	.	8c	4g	8AA	ii7	8A 8cc 8ee 8gg
8BB	8Fn	8d	.	8GG	V7b/IV	8g 8B 8dd 8ff
8C	8E	4e	4g	4CC	IV	4C 4e 4g
8D	8F#	.	.	.	.	.
8C	8G	4e	4g	4CC	IV	4C 4e 4g
8BB	16A	.	.	.	.	.
.	16B	.	.	.	.	.
=9	=9	=9	=9	=9	=9	=9
4AA	4c	8e	4a	4AA	ii	4A 4cc 4ee
.	.	8f#	.	.	.	.
4GG	4d	[4g	4b	4GG	I	4G 4b 4dd
2D	4.d	8g]	2a	2DD	V	2D 2f# 2a
.	.	8e	.	.	.	.
.	.	4f#	.	.	.	.
.	8c	.	.	.	.	.
=10	=10	=10	=10	=10	=10	=10
1GG;	1B;	1d;	1g;	1GG;	I;	1G; 1b; 1dd;
==	==	==	==	==	==	==
*-	*-	*-	*-	*-	*-	*-
